packages/icons/svg/Outline/play-circle.svg

<svg fill="none" height="24" viewBox="0 0 24 24" width="24" xmlns="http://www.w3.org/2000/svg"><path clip-rule="evenodd" d="m11.5 14.5996v-5.199l2.809 2.599zm.839-7.14713c-.498-.462-1.225-.582-1.851-.307-.61.266-.988.835-.988 1.484v6.74103c0 .649.378 1.218.988 1.484.223.098.46.145.693.145.423 0 .838-.155 1.157-.451l3.642-3.37c.331-.306.52-.735.52-1.179 0-.443-.189-.873-.52-1.178zm-.339 12.54763c-4.41098 0-7.99998-3.589-7.99998-8 0-4.41104 3.589-8.00003 7.99998-8.00003 4.411 0 8 3.58899 8 8.00003 0 4.411-3.589 8-8 8zm0-18.0001c-5.514 0-10 4.486-10 10s4.486 10 10 10 10-4.486 10-10-4.486-10-10-10z" fill="#6b7280" fill-rule="evenodd"/></svg>

<svg width="24" height="24" viewBox="0 0 24 24" fill="none" xmlns="http://www.w3.org/2000/svg">
<g id="Icon/Outline/play-circle">
<path id="Mask" fill-rule="evenodd" clip-rule="evenodd" d="M11.5 14.5996V9.4006L14.309 11.9996L11.5 14.5996ZM12.339 7.4526C11.841 6.9906 11.114 6.8706 10.488 7.1456C9.878 7.4116 9.5 7.9806 9.5 8.6296V15.3706C9.5 16.0196 9.878 16.5886 10.488 16.8546C10.711 16.9526 10.948 16.9996 11.181 16.9996C11.604 16.9996 12.019 16.8446 12.338 16.5486L15.98 13.1786C16.311 12.8726 16.5 12.4436 16.5 11.9996C16.5 11.5566 16.311 11.1266 15.98 10.8216L12.339 7.4526ZM12 20C7.589 20 4 16.411 4 12C4 7.589 7.589 4 12 4C16.411 4 20 7.589 20 12C20 16.411 16.411 20 12 20ZM12 2C6.486 2 2 6.486 2 12C2 17.514 6.486 22 12 22C17.514 22 22 17.514 22 12C22 6.486 17.514 2 12 2Z" fill="#000000"/>
</g>
</svg>
